X:1
T:Big Ed's Bogie
M:C
L:1/8
Q:80
C:Bruce Gandy
S:Reel
K:HP
{g}eA{gAGAG}A2{g}AB"flatc"cA | \
{g}BG{gBd}G2{g}Bd{g}G{d}B | \
{g}eA{gAGAG}A2{g}AB"flatc"cA |
{g}((3BAG){g}dB{g}A{d}A{e}Aa{g}eA{gAGAG}A2{g}AB"flatc"cA | \
{g}BG{gBd}G2{g}Bd{g}G{d}B | \
{g}AB"flatc"cA{g}BdGd |
{g}((3BAG){g}dB{g}A{d}A{e}A{d}B |: \
{gGd}G2gd{g}ed{G}dB | \
{gAGAG}A2ag{a}efge |
{g}dBgd{g}eg{a}dB | \
{g}((3GA{g}BAG){g}A{d}A{e}A{d}B :|
